X: 97
T:A Carrasqueira
M:2/4
L:1/8
Q:350
C:Trad
S:Rep. Os Campaneiros
R:Polca
K:C
EC EG | cG EG | FD B,F| "W"E2 C2| GA Bc |AB GA | FGAB |"W"G2 E>"F."c | E
C EG | cG EG | FD B,F |"W"E2C2 |EC EG |cG EG |FD B,D |1 {B,}C2-C2 :|2 {B
,}C3 c| A3 B| G3 B| AB AG| FGAB |G3 A| F3 A| GA GF |EFGc| A3B|
G3B| AB AG |FGAB |G3 A| F3A| GA GF | EGFE| DAGF| EFGE| FGAG| FEDF |: E4-
 | EGAB | cBAG| BAGF | 
A4- | AGFE | G4-|GF ED | A4- | AGAB| cBAG| BAGF| A4-| AGFE | G4-| GA GF
:| E4 ||

